admin/src/theme/img/safetyequipment/j.svg

<svg width="32" height="32" viewBox="0 0 32 32" xmlns="http://www.w3.org/2000/svg">
  <g fill="none" fill-rule="evenodd">
    <path d="M11.24 30.8571429h9.5257143V32H11.24v-1.1428571Zm2.0971429-24.57142861h5.3314285L16 10.8571429l-2.6685714-4.57142861h.0057143Zm5.3314285 9.14285711h-5.3314285l2.6685714-4.5714285 2.6685714 4.5714285h-.0057143Zm-3.24 0v15.3885715h1.1428572V15.4285714h-1.1428572Z" fill="#EC0E0E" fill-rule="nonzero"/>
    <path d="M0 0h32v32H0z"/>
  </g>
</svg>

<?xml version="1.0" encoding="UTF-8"?>
<svg width="32px" height="32px" viewBox="0 0 32 32" version="1.1" xmlns="http://www.w3.org/2000/svg" xmlns:xlink="http://www.w3.org/1999/xlink">
    <title>E477EC06-8C23-46A2-829F-CDD019D67668</title>
    <g id="Squat-laskuri" stroke="none" stroke-width="1" fill="none" fill-rule="evenodd">
        <g id="colors_and_typography" transform="translate(-1150.000000, -906.000000)">
            <g id="turvalaite_ikonit" transform="translate(718.000000, 906.000000)">
                <g id="kardinaali_länsi" transform="translate(432.000000, 0.000000)">
                    <path d="M11.24,30.8571429 L20.7657143,30.8571429 L20.7657143,32 L11.24,32 L11.24,30.8571429 Z M13.3371429,6.28571429 L18.6685714,6.28571429 L16,10.8571429 L13.3314286,6.28571429 L13.3371429,6.28571429 Z M18.6685714,15.4285714 L13.3371429,15.4285714 L16.0057143,10.8571429 L18.6742857,15.4285714 L18.6685714,15.4285714 Z M15.4285714,15.4285714 L15.4285714,30.8171429 L16.5714286,30.8171429 L16.5714286,15.4285714 L15.4285714,15.4285714 Z" id="Shape" fill="#EC0E0E" fill-rule="nonzero"></path>
                    <rect id="Rectangle" x="0" y="0" width="32" height="32"></rect>
                </g>
            </g>
        </g>
    </g>
</svg>
